src/scalable/apps/partitionmanager.svg

<?xml version="1.0" encoding="UTF-8" standalone="no"?>
<svg
   width="64"
   height="64"
   version="1.1"
   id="svg24"
   sodipodi:docname="org.kde.partitionmanager.svg"
   inkscape:version="1.4.2 (ebf0e940d0, 2025-05-08)"
   xmlns:inkscape="http://www.inkscape.org/namespaces/inkscape"
   xmlns:sodipodi="http://sodipodi.sourceforge.net/DTD/sodipodi-0.dtd"
   xmlns:xlink="http://www.w3.org/1999/xlink"
   xmlns="http://www.w3.org/2000/svg"
   xmlns:svg="http://www.w3.org/2000/svg">
  <sodipodi:namedview
     id="namedview24"
     pagecolor="#505050"
     bordercolor="#ffffff"
     borderopacity="1"
     inkscape:showpageshadow="0"
     inkscape:pageopacity="0"
     inkscape:pagecheckerboard="1"
     inkscape:deskcolor="#505050"
     inkscape:zoom="4.5354271"
     inkscape:cx="97.12426"
     inkscape:cy="19.954019"
     inkscape:window-width="1920"
     inkscape:window-height="1012"
     inkscape:window-x="0"
     inkscape:window-y="0"
     inkscape:window-maximized="1"
     inkscape:current-layer="svg24" />
  <defs
     id="defs2">
    <path
       id="a"
       d="M5 10A5 5 0 1 1 5 0a5 5 0 0 1 0 10" />
    <path
       id="b"
       d="M2.429 9.29A5 5 0 0 1 .507 7.196l8.979-4.408a5 5 0 0 0-1.399-1.722z" />
    <linearGradient
       id="c"
       x1="5"
       x2="5"
       y1="6"
       y2="4"
       gradientTransform="translate(27 22)"
       gradientUnits="userSpaceOnUse">
      <stop
         offset="0"
         stop-color="#E2E096"
         id="stop1" />
      <stop
         offset="1"
         stop-color="#F9F8D2"
         id="stop2" />
    </linearGradient>
  </defs>
  <g
     transform="translate(-54.576)"
     id="g13">
    <circle
       cx="86.576"
       cy="32"
       r="27"
       fill="#cacbcf"
       style="paint-order:stroke fill markers"
       id="circle2" />
    <path
       fill="#85858a"
       d="M105.576 15a2 2 0 1 1-4 0 2 2 0 0 1 4 0"
       id="path2" />
    <path
       fill="#fff"
       d="M104.576 15a1 1 0 1 0-2 0 1 1 0 0 0 2 0"
       id="path3" />
    <path
       fill="#85858a"
       d="M71.576 15a2 2 0 1 1-4 0 2 2 0 0 1 4 0"
       id="path4" />
    <path
       fill="#fff"
       d="M70.576 15a1 1 0 1 0-2 0 1 1 0 0 0 2 0"
       id="path5" />
    <g
       fill="#949496"
       fill-rule="evenodd"
       transform="matrix(-1 0 0 1 98.576 46)"
       id="g9">
      <rect
         width="1"
         height="7"
         rx=".5"
         id="rect5" />
      <rect
         width="1"
         height="7"
         x="2"
         rx=".5"
         id="rect6" />
      <rect
         width="1"
         height="7"
         x="4"
         rx=".5"
         id="rect7" />
      <rect
         width="1"
         height="7"
         x="6"
         rx=".5"
         id="rect8" />
      <rect
         width="1"
         height="7"
         x="8"
         rx=".5"
         id="rect9" />
    </g>
    <path
       fill="#85858a"
       d="M104.576 49a2 2 0 1 1-4 0 2 2 0 0 1 4 0"
       id="path9" />
    <path
       fill="#fff"
       d="M103.576 49a1 1 0 1 0-2 0 1 1 0 0 0 2 0"
       id="path10" />
    <path
       d="M65.576 34c-2.216 0-4 1.784-4 4v4.04A27 27 0 0 0 76.537 57h4.04c2.215 0 4-1.784 4-4v-7.105c-7.147-.748-13.11-5.46-15.663-11.895z"
       opacity=".15"
       style="paint-order:stroke fill markers"
       id="path11" />
    <path
       fill="#6a6a6a"
       d="M71.576 49a2 2 0 1 1-4 0 2 2 0 0 1 4 0"
       id="path12" />
    <path
       fill="#fff"
       d="M70.576 49a1 1 0 1 0-2 0 1 1 0 0 0 2 0"
       id="path13" />
  </g>
  <path
     fill="#49494c"
     fill-rule="evenodd"
     d="M48 27.122C48 35.837 40.837 43 32 43s-16-7.163-16-15.878C16 18.164 23.163 11 32 11s16 7.164 16 16.122"
     id="path14" />
  <path
     fill="#49494c"
     fill-rule="evenodd"
     d="M48 27.122C48 35.837 40.837 43 32 43s-16-7.163-16-15.878C16 18.164 23.163 11 32 11s16 7.164 16 16.122"
     id="path15" />
  <path
     fill="gray"
     d="M32 10c-9.388 0-17 7.61-17 17 0 9.388 7.612 17 17 17s17-7.612 17-17c0-9.39-7.612-17-17-17m10.417 27.418a14.7 14.7 0 0 1-4.683 3.159A14.65 14.65 0 0 1 32 41.732c-1.99 0-3.92-.388-5.734-1.155a14.7 14.7 0 0 1-4.683-3.16A14.67 14.67 0 0 1 17.266 27a14.68 14.68 0 0 1 4.316-10.417 14.7 14.7 0 0 1 4.684-3.16A14.6 14.6 0 0 1 32 12.268c1.99 0 3.92.39 5.734 1.157a14.7 14.7 0 0 1 4.683 3.158A14.68 14.68 0 0 1 46.734 27a14.67 14.67 0 0 1-4.316 10.418z"
     id="path16" />
  <g
     fill="#949496"
     fill-rule="evenodd"
     transform="matrix(-1 0 0 1 44 46)"
     id="g20">
    <rect
       width="1"
       height="7"
       rx=".5"
       id="rect16" />
    <rect
       width="1"
       height="7"
       x="2"
       rx=".5"
       id="rect17" />
    <rect
       width="1"
       height="7"
       x="4"
       rx=".5"
       id="rect18" />
    <rect
       width="1"
       height="7"
       x="6"
       rx=".5"
       id="rect19" />
    <rect
       width="1"
       height="7"
       x="8"
       rx=".5"
       id="rect20" />
  </g>
  <g
     id="g1"
     transform="matrix(0.58286612,0,0,0.58286612,-19.85542,14.919679)">
    <path
       style="fill:#3fa8e3;fill-opacity:1;fill-rule:evenodd"
       id="path1"
       sodipodi:type="arc"
       sodipodi:cx="88.966263"
       sodipodi:cy="-20.725721"
       sodipodi:rx="27.450558"
       sodipodi:ry="27.450558"
       sodipodi:start="0"
       sodipodi:end="1.5707963"
       sodipodi:arc-type="slice"
       d="M 116.41682,-20.725721 A 27.450558,27.450558 0 0 1 88.966263,6.7248363 V -20.725721 Z"
       transform="scale(1,-1)" />
    <path
       style="fill:#a569bd;fill-opacity:1;fill-rule:evenodd"
       id="path1-6"
       sodipodi:type="arc"
       sodipodi:cx="88.966263"
       sodipodi:cy="20.725721"
       sodipodi:rx="27.450558"
       sodipodi:ry="27.450558"
       sodipodi:start="0"
       sodipodi:end="1.5707963"
       sodipodi:arc-type="slice"
       d="M 116.41682,20.725721 A 27.450558,27.450558 0 0 1 88.966263,48.176279 V 20.725721 Z" />
    <path
       style="fill:#fdba47;fill-opacity:1;fill-rule:evenodd"
       id="path1-6-5"
       sodipodi:type="arc"
       sodipodi:cx="-88.966263"
       sodipodi:cy="20.725721"
       sodipodi:rx="27.450558"
       sodipodi:ry="27.450558"
       sodipodi:start="0"
       sodipodi:end="1.5707963"
       sodipodi:arc-type="slice"
       d="M -61.515705,20.725721 A 27.450558,27.450558 0 0 1 -88.966263,48.176279 V 20.725721 Z"
       transform="scale(-1,1)" />
    <path
       style="fill:#44c67b;fill-opacity:1;fill-rule:evenodd"
       id="path1-6-56"
       sodipodi:type="arc"
       sodipodi:cx="-88.966263"
       sodipodi:cy="-20.725721"
       sodipodi:rx="27.450558"
       sodipodi:ry="27.450558"
       sodipodi:start="0"
       sodipodi:end="1.5707963"
       sodipodi:arc-type="slice"
       d="M -61.515705,-20.725721 A 27.450558,27.450558 0 0 1 -88.966263,6.7248363 V -20.725721 Z"
       transform="scale(-1)" />
  </g>
  <circle
     cx="32"
     cy="27"
     r="2"
     fill="#fff"
     style="paint-order:markers stroke fill"
     id="circle20" />
  <g
     fill-rule="evenodd"
     id="g22">
    <path
       fill="#fff"
       d="M18.292 17.277 25 12l14.387 30.27 6.486-5.495Z"
       opacity=".1"
       id="path20" />
    <use
       xlink:href="#a"
       width="100%"
       height="100%"
       fill="#1a1a1a"
       transform="translate(27 22)"
       id="use20" />
    <use
       xlink:href="#b"
       width="100%"
       height="100%"
       fill="#fff"
       opacity=".1"
       transform="translate(27.003 22.007)"
       id="use21" />
    <path
       fill="#85858a"
       d="M32 30a3 3 0 1 1 0-6 3 3 0 0 1 0 6"
       id="path21" />
    <path
       fill="url(#c)"
       d="M33 27a1 1 0 1 1-2 0 1 1 0 0 1 2 0"
       id="path22" />
  </g>
  <path
     fill="gray"
     d="M32 10c-9.388 0-17 7.61-17 17 0 9.388 7.612 17 17 17s17-7.612 17-17c0-9.39-7.612-17-17-17m10.417 27.418a14.7 14.7 0 0 1-4.683 3.159A14.65 14.65 0 0 1 32 41.732c-1.99 0-3.92-.388-5.734-1.155a14.7 14.7 0 0 1-4.683-3.16A14.67 14.67 0 0 1 17.266 27a14.68 14.68 0 0 1 4.316-10.417 14.7 14.7 0 0 1 4.684-3.16A14.6 14.6 0 0 1 32 12.268c1.99 0 3.92.39 5.734 1.157a14.7 14.7 0 0 1 4.683 3.158A14.68 14.68 0 0 1 46.734 27a14.67 14.67 0 0 1-4.316 10.418z"
     id="path23" />
  <path
     fill="#fff"
     d="m25.298 50.578 12.326-15.323c.176-.205.282-.468.282-.755 0-.643-.533-1.165-1.191-1.165-.293 0-.562.102-.77.276L20.301 45.685a3.47 3.47 0 0 0-1.452 2.815c0 1.935 1.6 3.5 3.574 3.5a3.59 3.59 0 0 0 2.875-1.422"
     id="path24" />
</svg>

<svg xmlns="http://www.w3.org/2000/svg" xmlns:xlink="http://www.w3.org/1999/xlink" width="64" height="64"><defs><path id="a" d="M5 10A5 5 0 1 1 5 0a5 5 0 0 1 0 10"/><path id="b" d="M2.429 9.29A5 5 0 0 1 .507 7.196l8.979-4.408a5 5 0 0 0-1.399-1.722z"/><linearGradient id="c" x1="5" x2="5" y1="6" y2="4" gradientTransform="translate(27 22)" gradientUnits="userSpaceOnUse"><stop offset="0" stop-color="#e2e096"/><stop offset="1" stop-color="#f9f8d2"/></linearGradient></defs><g transform="translate(-54.576)"><circle cx="86.576" cy="32" r="27" fill="#cacbcf" style="paint-order:stroke fill markers"/><path fill="#85858a" d="M105.576 15a2 2 0 1 1-4 0 2 2 0 0 1 4 0"/><path fill="#fff" d="M104.576 15a1 1 0 1 0-2 0 1 1 0 0 0 2 0"/><path fill="#85858a" d="M71.576 15a2 2 0 1 1-4 0 2 2 0 0 1 4 0"/><path fill="#fff" d="M70.576 15a1 1 0 1 0-2 0 1 1 0 0 0 2 0"/><g fill="#949496" fill-rule="evenodd" transform="matrix(-1 0 0 1 98.576 46)"><rect width="1" height="7" rx=".5"/><rect width="1" height="7" x="2" rx=".5"/><rect width="1" height="7" x="4" rx=".5"/><rect width="1" height="7" x="6" rx=".5"/><rect width="1" height="7" x="8" rx=".5"/></g><path fill="#85858a" d="M104.576 49a2 2 0 1 1-4 0 2 2 0 0 1 4 0"/><path fill="#fff" d="M103.576 49a1 1 0 1 0-2 0 1 1 0 0 0 2 0"/><path d="M65.576 34c-2.216 0-4 1.784-4 4v4.04A27 27 0 0 0 76.537 57h4.04c2.215 0 4-1.784 4-4v-7.105c-7.147-.748-13.11-5.46-15.663-11.895z" opacity=".15" style="paint-order:stroke fill markers"/><path fill="#6a6a6a" d="M71.576 49a2 2 0 1 1-4 0 2 2 0 0 1 4 0"/><path fill="#fff" d="M70.576 49a1 1 0 1 0-2 0 1 1 0 0 0 2 0"/></g><path fill="#49494c" fill-rule="evenodd" d="M48 27.122C48 35.837 40.837 43 32 43s-16-7.163-16-15.878C16 18.164 23.163 11 32 11s16 7.164 16 16.122"/><path fill="#49494c" fill-rule="evenodd" d="M48 27.122C48 35.837 40.837 43 32 43s-16-7.163-16-15.878C16 18.164 23.163 11 32 11s16 7.164 16 16.122"/><path fill="gray" d="M32 10c-9.388 0-17 7.61-17 17 0 9.388 7.612 17 17 17s17-7.612 17-17c0-9.39-7.612-17-17-17m10.417 27.418a14.7 14.7 0 0 1-4.683 3.159A14.65 14.65 0 0 1 32 41.732c-1.99 0-3.92-.388-5.734-1.155a14.7 14.7 0 0 1-4.683-3.16A14.67 14.67 0 0 1 17.266 27a14.68 14.68 0 0 1 4.316-10.417 14.7 14.7 0 0 1 4.684-3.16A14.6 14.6 0 0 1 32 12.268c1.99 0 3.92.39 5.734 1.157a14.7 14.7 0 0 1 4.683 3.158A14.68 14.68 0 0 1 46.734 27a14.67 14.67 0 0 1-4.316 10.418z"/><g fill="#949496" fill-rule="evenodd" transform="matrix(-1 0 0 1 44 46)"><rect width="1" height="7" rx=".5"/><rect width="1" height="7" x="2" rx=".5"/><rect width="1" height="7" x="4" rx=".5"/><rect width="1" height="7" x="6" rx=".5"/><rect width="1" height="7" x="8" rx=".5"/></g><path d="M116.417-20.726a27.45 27.45 0 0 1-27.45 27.45v-27.45Z" style="fill:#3fa8e3;fill-opacity:1;fill-rule:evenodd" transform="matrix(.58287 0 0 -.58287 -19.855 14.92)"/><path d="M116.417 20.726a27.45 27.45 0 0 1-27.45 27.45v-27.45Z" style="fill:#a569bd;fill-opacity:1;fill-rule:evenodd" transform="translate(-19.855 14.92)scale(.58287)"/><path d="M-61.516 20.726a27.45 27.45 0 0 1-27.45 27.45v-27.45Z" style="fill:#fdba47;fill-opacity:1;fill-rule:evenodd" transform="matrix(-.58287 0 0 .58287 -19.855 14.92)"/><path d="M-61.516-20.726a27.45 27.45 0 0 1-27.45 27.45v-27.45Z" style="fill:#44c67b;fill-opacity:1;fill-rule:evenodd" transform="translate(-19.855 14.92)scale(-.58287)"/><circle cx="32" cy="27" r="2" fill="#fff" style="paint-order:markers stroke fill"/><g fill-rule="evenodd"><path fill="#fff" d="M18.292 17.277 25 12l14.387 30.27 6.486-5.495Z" opacity=".1"/><use xlink:href="#a" width="100%" height="100%" fill="#1a1a1a" transform="translate(27 22)"/><use xlink:href="#b" width="100%" height="100%" fill="#fff" opacity=".1" transform="translate(27.003 22.007)"/><path fill="#85858a" d="M32 30a3 3 0 1 1 0-6 3 3 0 0 1 0 6"/><path fill="url(#c)" d="M33 27a1 1 0 1 1-2 0 1 1 0 0 1 2 0"/></g><path fill="gray" d="M32 10c-9.388 0-17 7.61-17 17 0 9.388 7.612 17 17 17s17-7.612 17-17c0-9.39-7.612-17-17-17m10.417 27.418a14.7 14.7 0 0 1-4.683 3.159A14.65 14.65 0 0 1 32 41.732c-1.99 0-3.92-.388-5.734-1.155a14.7 14.7 0 0 1-4.683-3.16A14.67 14.67 0 0 1 17.266 27a14.68 14.68 0 0 1 4.316-10.417 14.7 14.7 0 0 1 4.684-3.16A14.6 14.6 0 0 1 32 12.268c1.99 0 3.92.39 5.734 1.157a14.7 14.7 0 0 1 4.683 3.158A14.68 14.68 0 0 1 46.734 27a14.67 14.67 0 0 1-4.316 10.418z"/><path fill="#fff" d="m25.298 50.578 12.326-15.323c.176-.205.282-.468.282-.755 0-.643-.533-1.165-1.191-1.165-.293 0-.562.102-.77.276L20.301 45.685a3.47 3.47 0 0 0-1.452 2.815c0 1.935 1.6 3.5 3.574 3.5a3.59 3.59 0 0 0 2.875-1.422"/></svg>
